**harmony	**harte	**kern	**silbe	**kern	**silbe	**rhyme	**timestamp	**phrase
*M4/4	*M4/4	*ICvox	*	*ICvox	*	*	*	*
*	*	*VRlead	*	*VRharmonize	*	*	*	*
*	*	*Hstimme	*	*Nstimme	*	*	*	*
*d:	*d:	*d:	*	*d:	*	*	*d:	*d:
*	*	*M4/4	*	*M4/4	*	*	*	*
*	*	*clefC3	*	*clefC3	*	*	*	*
1r;	1r	r;	.	r;	.	.	0	.
=1	=1	=1	=1	=1	=1	=1	=1	=1
*>Letter>A	*>Letter>A	*>Letter>A	*>Letter>A	*>Letter>A	*>Letter>A	*>Letter>A	*>Letter>A	*>Letter>A
*>Label>Intro	*>Label>Intro	*>Label>Intro	*>Label>Intro	*>Label>Intro	*>Label>Intro	*>Label>Intro	*>Label>Intro	*>Label>Intro
1Dm	D:min	16d	Shoo!	1r	.	A	0.392	newline
.	.	8.r	.	.	.	.	.	.
.	.	4r	.	.	.	.	.	.
.	.	4r	.	.	.	.	.	.
.	.	8.r	.	.	.	.	.	.
.	.	16d	Sh-	.	.	.	.	.
=2	=2	=2	=2	=2	=2	=2	=2	=2
1Dm	D:min	16d	-oo!	1r	.	A	3.277	.
.	.	8.r	.	.	.	.	.	.
.	.	4r	.	.	.	.	.	.
.	.	4r	.	.	.	.	.	.
.	.	8.r	.	.	.	.	.	.
.	.	16d	Sh-	.	.	.	.	.
=3	=3	=3	=3	=3	=3	=3	=3	=3
1Dm	D:min	16d	-oo!	1r	.	A	6.163	.
.	.	8.r	.	.	.	.	.	.
.	.	4r	.	.	.	.	.	.
.	.	4r	.	.	.	.	.	.
.	.	8.r	.	.	.	.	.	.
.	.	16d	Sh-	.	.	.	.	.
=4	=4	=4	=4	=4	=4	=4	=4	=4
1Dm	D:min	16d	-oo!	1r	.	A	9.049	.
.	.	16r	.	.	.	.	.	.
.	.	8r	.	.	.	.	.	.
.	.	4r	.	.	.	.	.	.
.	.	2r	.	.	.	.	.	.
=5	=5	=5	=5	=5	=5	=5	=5	=5
*>Letter>B	*>Letter>B	*>Letter>B	*>Letter>B	*>Letter>B	*>Letter>B	*>Letter>B	*>Letter>B	*>Letter>B
*>Label>Verse	*>Label>Verse	*>Label>Verse	*>Label>Verse	*>Label>Verse	*>Label>Verse	*>Label>Verse	*>Label>Verse	*>Label>Verse
1Dm	D:min	8r	.	1r	.	.	11.934	newline
.	.	8eq	_	.	.	.	.	.
.	.	8f	Here	.	.	.	.	.
.	.	16f	come	.	.	.	.	.
.	.	8.f	old	.	.	.	.	.
.	.	8f	flat	.	.	.	.	.
.	.	8d	top,	.	.	B	.	.
.	.	8c	he	.	.	.	.	.
.	.	8d	come	.	.	.	.	.
=6	=6	=6	=6	=6	=6	=6	=6	=6
1Dm	D:min	8r	.	1r	.	.	14.889	.
.	.	8eq	_	.	.	.	.	.
.	.	8f	groo-	.	.	A	.	.
.	.	16f	-ving	.	.	.	.	.
.	.	8.f	up	.	.	.	.	.
.	.	8f	slow-	.	.	(C	.	.
.	.	8d	-ly,	.	.	c)	.	.
.	.	8c	he	.	.	.	.	.
.	.	8d	got	.	.	B	.	.
=7	=7	=7	=7	=7	=7	=7	=7	=7
1Dm	D:min	8r	.	1r	.	.	17.843	.
.	.	8eq	_	.	.	.	.	.
.	.	4f	joo	.	.	A	.	.
.	.	8f	joo	.	.	A	.	.
.	.	8f	eye-	.	.	.	.	.
.	.	8d	-ball,	.	.	B	.	.
.	.	8c	he	.	.	.	.	.
.	.	8d	one	.	.	.	.	.
=8	=8	=8	=8	=8	=8	=8	=8	=8
1Dm	D:min	8r	.	1r	.	.	20.798	.
.	.	4f	ho-	.	.	(C	.	.
.	.	8d	-ly	.	.	c)	.	.
.	.	8f	rol-	.	.	(C	.	.
.	.	8d	-ler,	.	.	c)	.	.
.	.	8c	he	.	.	.	.	.
.	.	8d	got	.	.	B	.	.
=9	=9	=9	=9	=9	=9	=9	=9	=9
1Am	A:min	8r	.	1r	.	.	23.753	newline
.	.	8dq	_	.	.	.	.	.
.	.	8e	hair	.	.	.	.	.
.	.	4r	.	.	.	.	.	.
.	.	8d#q	_	.	.	.	.	.
.	.	4e	down	.	.	.	.	.
.	.	4r	.	.	.	.	.	.
=10	=10	=10	=10	=10	=10	=10	=10	=10
1Am	A:min	4.e	to	1r	.	A	26.661	.
.	.	8d	his	.	.	.	.	.
.	.	8e	knee	.	.	D	.	.
.	.	8r	.	.	.	.	.	.
.	.	4r	.	.	.	.	.	.
=11	=11	=11	=11	=11	=11	=11	=11	=11
1Gm	G:1	8~f	got	1r	.	B	29.57	.
.	.	8f	to	.	.	A	.	.
.	.	8~f	be	.	.	D	.	.
.	.	8f	a	.	.	.	.	.
.	.	8f	jo-	.	.	(C	.	.
.	.	8f	-ker,	.	.	c)	.	.
.	.	8f	he	.	.	D	.	.
.	.	8f	just	.	.	.	.	.
=12	=12	=12	=12	=12	=12	=12	=12	=12
1Gm	G:1	8f	do	1r	.	A	32.479	.
.	.	8f	what	.	.	.	.	.
.	.	8f	he	.	.	D	.	.
.	.	8f	please	.	.	D	.	.
.	.	4r	.	.	.	.	.	.
.	.	8.r	.	.	.	.	.	.
.	.	16d	Sh-	.	.	.	.	.
=13	=13	=13	=13	=13	=13	=13	=13	=13
*>Letter>A	*>Letter>A	*>Letter>A	*>Letter>A	*>Letter>A	*>Letter>A	*>Letter>A	*>Letter>A	*>Letter>A
*>Label>Interlude	*>Label>Interlude	*>Label>Interlude	*>Label>Interlude	*>Label>Interlude	*>Label>Interlude	*>Label>Interlude	*>Label>Interlude	*>Label>Interlude
1Dm	D:min	16d	-oo!	1r	.	A	35.387	newline
.	.	8.r	.	.	.	.	.	.
.	.	4r	.	.	.	.	.	.
.	.	4r	.	.	.	.	.	.
.	.	8.r	.	.	.	.	.	.
.	.	16d	Sh-	.	.	.	.	.
=14	=14	=14	=14	=14	=14	=14	=14	=14
1Dm	D:min	16d	-oo!	1r	.	A	38.232	.
.	.	8.r	.	.	.	.	.	.
.	.	4r	.	.	.	.	.	.
.	.	4r	.	.	.	.	.	.
.	.	8.r	.	.	.	.	.	.
.	.	16d	Sh-	.	.	.	.	.
=15	=15	=15	=15	=15	=15	=15	=15	=15
1Dm	D:min	16d	-oo!	1r	.	A	41.077	.
.	.	8.r	.	.	.	.	.	.
.	.	4r	.	.	.	.	.	.
.	.	4r	.	.	.	.	.	.
.	.	8.r	.	.	.	.	.	.
.	.	16d	Sh-	.	.	.	.	.
=16	=16	=16	=16	=16	=16	=16	=16	=16
1Dm	D:min	16d	-oo!	1r	.	A	43.923	.
.	.	16r	.	.	.	.	.	.
.	.	8r	.	.	.	.	.	.
.	.	4r	.	.	.	.	.	.
.	.	2r	.	.	.	.	.	.
=17	=17	=17	=17	=17	=17	=17	=17	=17
*>Letter>B	*>Letter>B	*>Letter>B	*>Letter>B	*>Letter>B	*>Letter>B	*>Letter>B	*>Letter>B	*>Letter>B
*>Label>Verse	*>Label>Verse	*>Label>Verse	*>Label>Verse	*>Label>Verse	*>Label>Verse	*>Label>Verse	*>Label>Verse	*>Label>Verse
1Dm	D:min	8r	.	1r	.	.	46.768	newline
.	.	8eq	_	.	.	.	.	.
.	.	8f	He	.	.	D	.	.
.	.	8f	wear	.	.	.	.	.
.	.	8f	no	.	.	.	.	.
.	.	8f	shoe	.	.	A	.	.
.	.	8d	shine,	.	.	.	.	.
.	.	8c	he	.	.	D	.	.
.	.	8d	got	.	.	B	.	.
=18	=18	=18	=18	=18	=18	=18	=18	=18
1Dm	D:min	8r	.	8r	.	.	49.71	.
.	.	8eq	_	8Bq	_	.	.	.
.	.	4f	toe	4c	toe	C	.	.
.	.	8f	jam	8B	jam	.	.	.
.	.	8f	foot-	8c	foot-	.	.	.
.	.	8d	-ball,	8A	-ball,	B	.	.
.	.	8c	he	4r	.	D	.	.
.	.	8d	got	.	.	B	.	.
=19	=19	=19	=19	=19	=19	=19	=19	=19
1Dm	D:min	8r	.	8r	.	.	52.653	.
.	.	16eQ	_	8Bq	_	.	.	.
.	.	4f	mon-	4c	mon-	(E	.	.
.	.	8d	-key	8B	-key	d)	.	.
.	.	8e	fin-	8c	fin-	D	.	.
.	.	8d	-ger,	8A	-ger,	.	.	.
.	.	8c	he	4r	.	D	.	.
.	.	8d	shoot	.	.	A	.	.
=20	=20	=20	=20	=20	=20	=20	=20	=20
1Dm	D:min	8r	.	8r	.	.	55.595	.
.	.	.	.	8Bq	_	.	.	.
.	.	4f	Co-	4c	Co-	(C	.	.
.	.	8d	-ca	8B	-ca	c)	.	.
.	.	8f	Co-	8c	Co-	(C	.	.
.	.	8d	-la,	8A	-la,	c)	.	.
.	.	8c	he	4r	.	D	.	.
.	.	8d	say	.	.	.	.	.
=21	=21	=21	=21	=21	=21	=21	=21	=21
1Am	A:min	8r	.	8r	.	.	58.538	newline
.	.	8e	"\\\""I"	8c	"\\\""I"	.	.	.
.	.	.	.	8cq	_	.	.	.
.	.	8e	know	8c#	know	C	.	.
.	.	16d#	_	16B	_	.	.	.
.	.	[16e	you	[16c	you	A	.	.
.	.	8e]	_	8c]	_	.	.	.
.	.	8r	.	8r	.	.	.	.
.	.	4r	.	4r	.	.	.	.
=22	=22	=22	=22	=22	=22	=22	=22	=22
1Am	A:min	8e	you	8e	you	A	61.439	.
.	.	8e	know	8e	know	C	.	.
.	.	8d#	_	8d#	_	.	.	.
.	.	8e	me	8e	me	D	.	.
.	.	2r	.	2r	.	.	.	.
=23	=23	=23	=23	=23	=23	=23	=23	=23
1Gm	G:1	8~f	one	1r	.	.	64.341	.
.	.	8f	thing	.	.	D	.	.
.	.	8~f	I	.	.	.	.	.
.	.	8f	can	.	.	.	.	.
.	.	8~f	tell	.	.	.	.	.
.	.	8f	you	.	.	A	.	.
.	.	8f	is	.	.	.	.	.
.	.	8f	you	.	.	A	.	.
=24	=24	=24	=24	=24	=24	=24	=24	=24
1N	N	8f	got	2r	.	B	67.243	.
.	.	8f	to	.	.	A	.	.
.	.	8f	be	.	.	D	.	.
.	.	[8f	"free!\\\"""	.	.	D	.	.
.	.	8f]	_	4r	.	.	.	.
.	.	8r	.	.	.	.	.	.
.	.	8d	Come	8A	Come	.	.	.
.	.	16d	to-	16A	to-	.	.	.
.	.	8gq	_	.	.	.	.	.
.	.	[16a	_	[16d	_	.	.	.
=25	=25	=25	=25	=25	=25	=25	=25	=25
*>Letter>C	*>Letter>C	*>Letter>C	*>Letter>C	*>Letter>C	*>Letter>C	*>Letter>C	*>Letter>C	*>Letter>C
*>Label>Chorus	*>Label>Chorus	*>Label>Chorus	*>Label>Chorus	*>Label>Chorus	*>Label>Chorus	*>Label>Chorus	*>Label>Chorus	*>Label>Chorus
2.Bm	B:5	16a]	_	16d]	_	.	70.145	newline
.	.	16eQ	_	16AQ	_	.	.	.
.	.	8.f#	_	8.B	_	.	.	.
.	.	4r	.	4r	.	.	.	.
.	.	4r	.	2r	.	.	.	.
.	.	8eq	_	.	.	.	.	.
4Am	A:5	4f#	right	.	.	.	72.305	.
=26	=26	=26	=26	=26	=26	=26	=26	=26
2Gm	G:5	16e	now	1r	.	.	73.026	.
.	.	16d	_	.	.	.	.	.
.	.	8B	_	.	.	.	.	.
.	.	4r	.	.	.	.	.	.
2Am	A:5	4r	.	.	.	.	74.466	.
.	.	8Aq	_	.	.	.	.	.
.	.	8B	o-	.	.	.	.	.
.	.	16d	-ver	.	.	.	.	.
.	.	16d	me!	.	.	D	.	.
=27	=27	=27	=27	=27	=27	=27	=27	=27
*>Letter>A	*>Letter>A	*>Letter>A	*>Letter>A	*>Letter>A	*>Letter>A	*>Letter>A	*>Letter>A	*>Letter>A
*>Label>Interlude	*>Label>Interlude	*>Label>Interlude	*>Label>Interlude	*>Label>Interlude	*>Label>Interlude	*>Label>Interlude	*>Label>Interlude	*>Label>Interlude
1Dm	D:min	2r	.	1r	.	.	75.906	newline
.	.	4r	.	.	.	.	.	.
.	.	8.r	.	.	.	.	.	.
.	.	16d	Sh-	.	.	.	.	.
=28	=28	=28	=28	=28	=28	=28	=28	=28
1Dm	D:min	16d	-oo!	1r	.	A	78.743	.
.	.	8.r	.	.	.	.	.	.
.	.	4r	.	.	.	.	.	.
.	.	4r	.	.	.	.	.	.
.	.	8.r	.	.	.	.	.	.
.	.	16d	Sh-	.	.	.	.	.
=29	=29	=29	=29	=29	=29	=29	=29	=29
1Dm	D:min	16d	-oo!	1r	.	A	81.579	.
.	.	8.r	.	.	.	.	.	.
.	.	4r	.	.	.	.	.	.
.	.	4r	.	.	.	.	.	.
.	.	8.r	.	.	.	.	.	.
.	.	16d	Sh-	.	.	.	.	.
=30	=30	=30	=30	=30	=30	=30	=30	=30
1Dm	D:min	16d	-oo!	1r	.	A	84.416	.
.	.	16r	.	.	.	.	.	.
.	.	8r	.	.	.	.	.	.
.	.	4r	.	.	.	.	.	.
.	.	2r	.	.	.	.	.	.
=31	=31	=31	=31	=31	=31	=31	=31	=31
*>Letter>B	*>Letter>B	*>Letter>B	*>Letter>B	*>Letter>B	*>Letter>B	*>Letter>B	*>Letter>B	*>Letter>B
*>Label>Verse	*>Label>Verse	*>Label>Verse	*>Label>Verse	*>Label>Verse	*>Label>Verse	*>Label>Verse	*>Label>Verse	*>Label>Verse
1Dm	D:min	8r	.	1r	.	.	87.252	newline
.	.	8~eq	_	.	.	.	.	.
.	.	8~f	He	.	.	D	.	.
.	.	8~f	bag	.	.	.	.	.
.	.	16d	pro-	.	.	(C	.	.
.	.	16f	-duc	.	.	e	.	.
.	.	16r	.	.	.	.	.	.
.	.	8d	tion	.	.	E)	.	.
.	.	16r	.	.	.	.	.	.
.	.	8c	he	.	.	D	.	.
.	.	8d	got	.	.	B	.	.
=32	=32	=32	=32	=32	=32	=32	=32	=32
1Dm	D:min	8r	.	8r	.	.	90.172	.
.	.	8eq	_	8Bq	_	.	.	.
.	.	4f	wal-	4c	wal-	(B	.	.
.	.	8d	-rus	8~B	-rus	e)	.	.
.	.	8f	gum-	8c	gum-	(E	.	.
.	.	8d	-boot,	8~A	-boot,	a)	.	.
.	.	8c	he	4r	.	D	.	.
.	.	8d	got	.	.	B	.	.
=33	=33	=33	=33	=33	=33	=33	=33	=33
1Dm	D:min	8r	.	8r	.	.	93.091	.
.	.	16eQ	_	8Bq	_	.	.	.
.	.	4f	O-	4c	O-	.	.	.
.	.	8d	-no	8B	-no	.	.	.
.	.	8e	side-	8B	side-	.	.	.
.	.	8d	-board,	8A	-board,	.	.	.
.	.	8c	he	4r	.	D	.	.
.	.	8d	one	.	.	B	.	.
=34	=34	=34	=34	=34	=34	=34	=34	=34
1Dm	D:min	8r	.	8r	.	.	96.011	.
.	.	.	.	8Bq	_	.	.	.
.	.	4f	spi-	4c	spi-	.	.	.
.	.	8d	-nal	8B	-nal	.	.	.
.	.	8f	crac-	8c	crac-	.	.	.
.	.	8d	-ker,	8A	-ker,	.	.	.
.	.	8c	he	4r	.	D	.	.
.	.	8d	got	.	.	B	.	.
=35	=35	=35	=35	=35	=35	=35	=35	=35
1Am	A:min	8r	.	8r	.	.	98.93	newline
.	.	8dq	_	8Bq	_	.	.	.
.	.	8e	feet	8c	feet	D	.	.
.	.	4r	.	4r	.	.	.	.
.	.	8d#q	_	8Bq	_	.	.	.
.	.	4e	down	4c	down	.	.	.
.	.	8d	be-	8c	be-	.	.	.
.	.	[8e	-low	8c	-low	C	.	.
=36	=36	=36	=36	=36	=36	=36	=36	=36
1Am	A:min	4e]	_	8c#	_	.	101.858	.
.	.	.	.	8c	_	.	.	.
.	.	8d	his	8B-	his	F	.	.
.	.	8e	knee	8c	knee	D	.	.
.	.	2r	.	2r	.	.	.	.
=37	=37	=37	=37	=37	=37	=37	=37	=37
1Gm	G:1	8~f	hold	1r	.	C	104.787	.
.	.	8f	you	.	.	a	.	.
.	.	8f	in	.	.	F	.	.
.	.	8f	his	.	.	f	.	.
.	.	8f	arm-	.	.	.	.	.
.	.	8f	-chair,	.	.	.	.	.
.	.	8f	you	.	.	A	.	.
.	.	8f	can	.	.	.	.	.
=38	=38	=38	=38	=38	=38	=38	=38	=38
1Gm	G:1	8~f	feel	2r	.	D	107.715	.
.	.	8f	his	.	.	F	.	.
.	.	8f	dis-	.	.	(f	.	.
.	.	[8f	-ease	.	.	D)	.	.
.	.	8~f]	_	4r	.	.	.	.
.	.	8r	.	.	.	.	.	.
.	.	8d	Come	8A	Come	.	.	.
.	.	16d	to-	16A	to-	.	.	.
.	.	8gq	_	.	.	.	.	.
.	.	[16a	-ge	[16d	-ge	.	.	.
=39	=39	=39	=39	=39	=39	=39	=39	=39
*>Letter>C	*>Letter>C	*>Letter>C	*>Letter>C	*>Letter>C	*>Letter>C	*>Letter>C	*>Letter>C	*>Letter>C
*>Label>Chorus	*>Label>Chorus	*>Label>Chorus	*>Label>Chorus	*>Label>Chorus	*>Label>Chorus	*>Label>Chorus	*>Label>Chorus	*>Label>Chorus
2.Bm	B:5	16a]	_	16d]	_	.	110.644	newline
.	.	16eQ	_	16AQ	_	.	.	.
.	.	8.f#	ther	8.B	ther	.	.	.
.	.	4r	.	4r	.	.	.	.
.	.	4r	.	2r	.	.	.	.
.	.	8eq	_	.	.	.	.	.
4Am	A:5	4f#	right	.	.	.	112.812	.
=40	=40	=40	=40	=40	=40	=40	=40	=40
2Gm	G:5	16e	now	1r	.	.	113.534	.
.	.	16d	_	.	.	.	.	.
.	.	8B	_	.	.	.	.	.
.	.	4r	.	.	.	.	.	.
2Am	A:5	4r	.	.	.	.	114.98	.
.	.	8B	o-	.	.	.	.	.
.	.	16d	-ver	.	.	.	.	.
.	.	16d	me!	.	.	D	.	.
=41	=41	=41	=41	=41	=41	=41	=41	=41
*>Letter>A	*>Letter>A	*>Letter>A	*>Letter>A	*>Letter>A	*>Letter>A	*>Letter>A	*>Letter>A	*>Letter>A
*>Label>Interlude	*>Label>Interlude	*>Label>Interlude	*>Label>Interlude	*>Label>Interlude	*>Label>Interlude	*>Label>Interlude	*>Label>Interlude	*>Label>Interlude
1Dmm	D:min7	2r	.	1r	.	.	116.425	newline
.	.	4r	.	.	.	.	.	.
.	.	8.r	.	.	.	.	.	.
.	.	16d	Sh-	.	.	.	.	.
=42	=42	=42	=42	=42	=42	=42	=42	=42
1Dmm	D:min7	16d	-oo!	1r	.	A	119.224	.
.	.	16r	.	.	.	.	.	.
.	.	8r	.	.	.	.	.	.
.	.	4r	.	.	.	.	.	.
.	.	8.r	.	.	.	.	.	.
.	.	[16b-	Right!	.	.	.	.	.
.	.	4b-]	_	.	.	.	.	.
=43	=43	=43	=43	=43	=43	=43	=43	=43
*>Letter>B2	*>Letter>B2	*>Letter>B2	*>Letter>B2	*>Letter>B2	*>Letter>B2	*>Letter>B2	*>Letter>B2	*>Letter>B2
*>Label>Solo	*>Label>Solo	*>Label>Solo	*>Label>Solo	*>Label>Solo	*>Label>Solo	*>Label>Solo	*>Label>Solo	*>Label>Solo
1Dm	D:min	1r	.	1r	.	.	122.023	newline
=44	=44	=44	=44	=44	=44	=44	=44	=44
1Dm	D:min	1r	.	1r	.	.	124.918	.
=45	=45	=45	=45	=45	=45	=45	=45	=45
1Dm	D:min	1r	.	1r	.	.	127.813	.
=46	=46	=46	=46	=46	=46	=46	=46	=46
1Dm	D:min	2r	.	1r	.	.	130.708	.
.	.	8.r	.	.	.	.	.	.
.	.	[16g	Come	.	.	.	.	.
.	.	16g]	_	.	.	.	.	.
.	.	8d	on	.	.	.	.	.
.	.	16r	.	.	.	.	.	.
=47	=47	=47	=47	=47	=47	=47	=47	=47
1Am	A:min	1r	.	1r	.	.	133.603	newline
=48	=48	=48	=48	=48	=48	=48	=48	=48
1Am	A:min	1r	.	1r	.	.	136.488	.
=49	=49	=49	=49	=49	=49	=49	=49	=49
1Am	A:min	1r	.	1r	.	.	139.374	.
=50	=50	=50	=50	=50	=50	=50	=50	=50
1Am	A:min	1r	.	1r	.	.	142.26	.
=51	=51	=51	=51	=51	=51	=51	=51	=51
*>Letter>A2	*>Letter>A2	*>Letter>A2	*>Letter>A2	*>Letter>A2	*>Letter>A2	*>Letter>A2	*>Letter>A2	*>Letter>A2
*>Label>Interlude	*>Label>Interlude	*>Label>Interlude	*>Label>Interlude	*>Label>Interlude	*>Label>Interlude	*>Label>Interlude	*>Label>Interlude	*>Label>Interlude
1Dmm	D:min7	1r	.	1r	.	.	145.145	newline
=52	=52	=52	=52	=52	=52	=52	=52	=52
1Dmm	D:min7	1r	.	1r	.	.	148.013	.
=53	=53	=53	=53	=53	=53	=53	=53	=53
*>Letter>B	*>Letter>B	*>Letter>B	*>Letter>B	*>Letter>B	*>Letter>B	*>Letter>B	*>Letter>B	*>Letter>B
*>Label>Verse	*>Label>Verse	*>Label>Verse	*>Label>Verse	*>Label>Verse	*>Label>Verse	*>Label>Verse	*>Label>Verse	*>Label>Verse
1Dm	D:min	8r	.	1r	.	.	150.881	newline
.	.	8eq	_	.	.	.	.	.
.	.	8f	He	.	.	D	.	.
.	.	8f	rol-	.	.	(C	.	.
.	.	16d	-ler	.	.	c)	.	.
.	.	16~f	coas	.	.	(C	.	.
.	.	16r	.	.	.	.	.	.
.	.	8d	ter	.	.	c)	.	.
.	.	16r	.	.	.	.	.	.
.	.	8c	he	.	.	D	.	.
.	.	8d	got	.	.	B	.	.
=54	=54	=54	=54	=54	=54	=54	=54	=54
1Dm	D:min	8r	.	8r	.	.	153.837	.
.	.	8eq	_	8Bq	_	.	.	.
.	.	4f	ear-	8c	ear-	.	.	.
.	.	.	.	4~B	_	.	.	.
.	.	8d	-ly	.	.	d	.	.
.	.	8f	war-	8c	-war-	.	.	.
.	.	8d	-ning,	8~A	-ning,	d	.	.
.	.	8c	he	4r	.	D	.	.
.	.	8d	got	.	.	B	.	.
=55	=55	=55	=55	=55	=55	=55	=55	=55
1Dm	D:min	8r	.	8r	.	.	156.793	.
.	.	16eQ	_	8Bq	_	.	.	.
.	.	4f	mud-	4c	mud-	(E	.	.
.	.	8d	-dy	8B	-dy	d)	.	.
.	.	8f	wa-	8c	wa-	.	.	.
.	.	8d	-ter,	8A	-ter,	.	.	.
.	.	8c	he	4r	.	D	.	.
.	.	8d	one	.	.	B	.	.
=56	=56	=56	=56	=56	=56	=56	=56	=56
1Dm	D:min	8r	.	8r	.	.	159.748	.
.	.	8eq	_	8Bq	_	.	.	.
.	.	4f	mo-	4c	mo-	(E	.	.
.	.	8d	-jo	8B	-jo	E)	.	.
.	.	8f	fil-	8c	fil-	.	.	.
.	.	8d	-ter,	8A	-ter,	.	.	.
.	.	8c	he	4r	.	D	.	.
.	.	8d	say	.	.	.	.	.
=57	=57	=57	=57	=57	=57	=57	=57	=57
1Am	A:min	8r	.	8r	.	.	162.704	newline
.	.	8dq	_	8B#q	_	.	.	.
.	.	4e	"\\\""one"	4c#	"\\\""one"	B	.	.
.	.	8d	and	8B#	and	.	.	.
.	.	4e	one	4c#	one	B	.	.
.	.	8d	and	8B#	and	.	.	.
.	.	[8e	one	[8c#	one	B	.	.
=58	=58	=58	=58	=58	=58	=58	=58	=58
1Am	A:min	4e]	_	4c#]	_	.	165.629	.
.	.	8d	is	8B#	is	.	.	.
.	.	8e	"three,\\\"""	8c#	"three,\\\"""	D	.	.
.	.	2r	.	2r	.	.	.	.
=59	=59	=59	=59	=59	=59	=59	=59	=59
1Gm	G:1	8f	got	8f	got	B	168.555	.
.	.	8f	to	8f	to	A	.	.
.	.	8f	be	8f	be	D	.	.
.	.	8f	good	16f	good	A	.	.
.	.	.	.	16f	l-	.	.	.
.	.	8~f	loo-	8f	-loo-	(A	.	.
.	.	8~f	-king	8f	-king	d)	.	.
.	.	8f	cuz	8f	cuz	E	.	.
.	.	8f	he	8f	he	D	.	.
=60	=60	=60	=60	=60	=60	=60	=60	=60
1Gm	G:1	8f	so	8f	so	.	171.48	.
.	.	8f	hard	8f	hard	.	.	.
.	.	8d	to	8d	to	A	.	.
.	.	[8f	see	[8f	see	D	.	.
.	.	8f]	_	8f]	_	.	.	.
.	.	8r	.	8r	.	.	.	.
.	.	8d	Come	8A	Come	.	.	.
.	.	16d	to	16A	to	.	.	.
.	.	8gq	_	.	.	.	.	.
.	.	[16a	ge	[16d	ge	.	.	.
=61	=61	=61	=61	=61	=61	=61	=61	=61
*>Letter>C	*>Letter>C	*>Letter>C	*>Letter>C	*>Letter>C	*>Letter>C	*>Letter>C	*>Letter>C	*>Letter>C
*>Label>Chorus	*>Label>Chorus	*>Label>Chorus	*>Label>Chorus	*>Label>Chorus	*>Label>Chorus	*>Label>Chorus	*>Label>Chorus	*>Label>Chorus
2.Bm	B:5	16a]	_	16d]	_	.	174.405	newline
.	.	16eQ	_	16AQ	_	.	.	.
.	.	8.f#	ther	8.B	ther	.	.	.
.	.	4r	.	4r	.	.	.	.
.	.	4r	.	2r	.	.	.	.
.	.	8eq	_	.	.	.	.	.
4Am	A:5	4f#	right	.	.	.	176.599	.
=62	=62	=62	=62	=62	=62	=62	=62	=62
2Gm	G:5	16e	now	1r	.	.	177.331	.
.	.	16d	_	.	.	.	.	.
.	.	8B	_	.	.	.	.	.
.	.	4r	.	.	.	.	.	.
2Am	A:5	4r	.	.	.	.	178.794	.
.	.	8B	o-	.	.	.	.	.
.	.	16d	-ver	.	.	.	.	.
.	.	16d	me!	.	.	D	.	.
=63	=63	=63	=63	=63	=63	=63	=63	=63
*>Letter>A	*>Letter>A	*>Letter>A	*>Letter>A	*>Letter>A	*>Letter>A	*>Letter>A	*>Letter>A	*>Letter>A
*>Label>Interlude	*>Label>Interlude	*>Label>Interlude	*>Label>Interlude	*>Label>Interlude	*>Label>Interlude	*>Label>Interlude	*>Label>Interlude	*>Label>Interlude
1Dm	D:min	2r	.	1r	.	.	180.257	newline
.	.	4r	.	.	.	.	.	.
.	.	8.r	.	.	.	.	.	.
.	.	16d	Sh-	.	.	.	.	.
=64	=64	=64	=64	=64	=64	=64	=64	=64
1Dm	D:min	16d	-oo!	1r	.	A	183.09	.
.	.	8.r	.	.	.	.	.	.
.	.	4r	.	.	.	.	.	.
.	.	4r	.	.	.	.	.	.
.	.	8.r	.	.	.	.	.	.
.	.	16d	Sh-	.	.	.	.	.
=65	=65	=65	=65	=65	=65	=65	=65	=65
1Dm	D:min	16d	-oo!	1r	.	A	185.923	.
.	.	8.r	.	.	.	.	.	.
.	.	4r	.	.	.	.	.	.
.	.	4r	.	.	.	.	.	.
.	.	8.r	.	.	.	.	.	.
.	.	16d	Sh-	.	.	.	.	.
=66	=66	=66	=66	=66	=66	=66	=66	=66
1Dm	D:min	16d	-oo!	1r	.	A	188.756	.
.	.	16r	.	.	.	.	.	.
.	.	8r	.	.	.	.	.	.
.	.	4r	.	.	.	.	.	.
.	.	4r	.	.	.	.	.	.
.	.	16r	.	.	.	.	.	.
.	.	8.a-	Ungh!	.	.	.	.	.
=67	=67	=67	=67	=67	=67	=67	=67	=67
*>Letter>A2	*>Letter>A2	*>Letter>A2	*>Letter>A2	*>Letter>A2	*>Letter>A2	*>Letter>A2	*>Letter>A2	*>Letter>A2
*>Label>Outro	*>Label>Outro	*>Label>Outro	*>Label>Outro	*>Label>Outro	*>Label>Outro	*>Label>Outro	*>Label>Outro	*>Label>Outro
1Dmm	D:min13	1r	.	1r	.	.	191.589	newline
=68	=68	=68	=68	=68	=68	=68	=68	=68
1Dmm	D:min13	1r	.	1r	.	.	194.462	.
=69	=69	=69	=69	=69	=69	=69	=69	=69
1Dmm	D:min13	4r	.	1r	.	.	197.335	.
.	.	8e	Come	.	.	.	.	.
.	.	16f	to-	.	.	.	.	.
.	.	[16e	-ge	.	.	.	.	.
.	.	16e]	_	.	.	.	.	.
.	.	8d	ther	.	.	.	.	.
.	.	16r	.	.	.	.	.	.
.	.	4r	.	.	.	.	.	.
=70	=70	=70	=70	=70	=70	=70	=70	=70
1Dmm	D:min13	4r	.	1r	.	.	200.209	.
.	.	8f	Yeah!	.	.	.	.	.
.	.	2r	.	.	.	.	.	.
.	.	8r	.	.	.	.	.	.
=71	=71	=71	=71	=71	=71	=71	=71	=71
1Dmm	D:min13	4r	.	1r	.	.	203.082	newline
.	.	8e	Come	.	.	.	.	.
.	.	16f	to-	.	.	.	.	.
.	.	[16e	-ge	.	.	.	.	.
.	.	16e]	_	.	.	.	.	.
.	.	8d	ther	.	.	.	.	.
.	.	16r	.	.	.	.	.	.
.	.	4r	.	.	.	.	.	.
=72	=72	=72	=72	=72	=72	=72	=72	=72
1Dmm	D:min13	4c	Yeah!	1r	.	.	205.909	.
.	.	4r	.	.	.	.	.	.
.	.	2r	.	.	.	.	.	.
=73	=73	=73	=73	=73	=73	=73	=73	=73
1Dmm	D:min13	4r	.	1r	.	.	208.736	.
.	.	8e	Come	.	.	.	.	.
.	.	16f	to-	.	.	.	.	.
.	.	[16e	-ge	.	.	.	.	.
.	.	16e]	_	.	.	.	.	.
.	.	8d	ther	.	.	.	.	.
.	.	16r	.	.	.	.	.	.
.	.	4r	.	.	.	.	.	.
=74	=74	=74	=74	=74	=74	=74	=74	=74
1Dmm	D:min13	4d	Yeah!	1r	.	.	211.563	.
.	.	4r	.	.	.	.	.	.
.	.	2r	.	.	.	.	.	.
=75	=75	=75	=75	=75	=75	=75	=75	=75
1Dmm	D:min13	4r	.	1r	.	.	214.39	newline
.	.	8e	Come	.	.	.	.	.
.	.	16f	to-	.	.	.	.	.
.	.	[16e	-ge	.	.	.	.	.
.	.	16e]	_	.	.	.	.	.
.	.	8d	ther	.	.	.	.	.
.	.	16r	.	.	.	.	.	.
.	.	4r	.	.	.	.	.	.
=76	=76	=76	=76	=76	=76	=76	=76	=76
1Dmm	D:min13	4d	Yeah!	1r	.	.	217.227	.
.	.	4r	.	.	.	.	.	.
.	.	2r	.	.	.	.	.	.
=77	=77	=77	=77	=77	=77	=77	=77	=77
1Dmm	D:min13	4r	.	1r	.	.	220.065	.
.	.	8e	Come	.	.	.	.	.
.	.	16f	to-	.	.	.	.	.
.	.	[16e	-ge	.	.	.	.	.
.	.	16e]	_	.	.	.	.	.
.	.	8d	ther	.	.	.	.	.
.	.	16r	.	.	.	.	.	.
.	.	8.r	.	.	.	.	.	.
.	.	16d	Y-	.	.	.	.	.
=78	=78	=78	=78	=78	=78	=78	=78	=78
1Dmm	D:min13	4a	-yeah!	1r	.	.	222.902	.
.	.	4r	.	.	.	.	.	.
.	.	2r	.	.	.	.	.	.
=79	=79	=79	=79	=79	=79	=79	=79	=79
1Dmm	D:min13	4r	.	1r	.	.	225.74	newline
.	.	8e	Come	.	.	.	.	.
.	.	16f	to-	.	.	.	.	.
.	.	[16e	-ge	.	.	.	.	.
.	.	16e]	_	.	.	.	.	.
.	.	8d	ther	.	.	.	.	.
.	.	16r	.	.	.	.	.	.
.	.	8.r	.	.	.	.	.	.
.	.	16ccQ	_	.	.	.	.	.
.	.	[16dd	Yeah	.	.	.	.	.
=80	=80	=80	=80	=80	=80	=80	=80	=80
1Dmm	D:min13	2.dd]	_	1r	.	.	228.561	.
.	.	8r	.	.	.	.	.	.
.	.	8r	.	.	.	.	.	.
=81	=81	=81	=81	=81	=81	=81	=81	=81
1Dmm	D:min13	4r	.	1r	.	.	231.382	.
.	.	8e	Come	.	.	.	.	.
.	.	16f	to-	.	.	.	.	.
.	.	[16e	-ge	.	.	.	.	.
.	.	16e]	_	.	.	.	.	.
.	.	8d	ther	.	.	.	.	.
.	.	16r	.	.	.	.	.	.
.	.	8.r	.	.	.	.	.	.
.	.	16ccQ	_	.	.	.	.	.
.	.	[16dd	Yeah	.	.	.	.	.
=82	=82	=82	=82	=82	=82	=82	=82	=82
1Dmm	D:min13	2dd]	_	1r	.	.	234.203	.
.	.	2r	.	.	.	.	.	.
=83	=83	=83	=83	=83	=83	=83	=83	=83
*>Label>>Fadeout	*>Label>>Fadeout	*>Label>>Fadeout	*>Label>>Fadeout	*>Label>>Fadeout	*>Label>>Fadeout	*>Label>>Fadeout	*>Label>>Fadeout	*>Label>>Fadeout
1Dmm	D:min13	4r	.	1r	.	.	237.024	newline
.	.	[2.~D	Uh!	.	.	.	.	.
=84	=84	=84	=84	=84	=84	=84	=84	=84
1Dmm	D:min13	4~D]	_	1r	.	.	239.824	.
.	.	4r	.	.	.	.	.	.
.	.	2r	.	.	.	.	.	.
=85	=85	=85	=85	=85	=85	=85	=85	=85
1Dmm	D:min13	4r	.	1r	.	.	242.623	.
.	.	8e	Come	.	.	.	.	.
.	.	16f	to-	.	.	.	.	.
.	.	[16e	-ge	.	.	.	.	.
.	.	16e]	_	.	.	.	.	.
.	.	8d	ther	.	.	.	.	.
.	.	16r	.	.	.	.	.	.
.	.	8.r	.	.	.	.	.	.
.	.	[16~e	Yeah!	.	.	.	.	.
=86	=86	=86	=86	=86	=86	=86	=86	=86
1Dmm	D:min13	8.~e]	_	1r	.	.	245.422	.
.	.	16r	.	.	.	.	.	.
.	.	4r	.	.	.	.	.	.
.	.	2r	.	.	.	.	.	.
=87	=87	=87	=87	=87	=87	=87	=87	=87
1Dmm	D:min13	4r	.	1r	.	.	248.221	newline
.	.	8e	Come	.	.	.	.	.
.	.	16f	to-	.	.	.	.	.
.	.	[16e	-ge	.	.	.	.	.
.	.	16e]	_	.	.	.	.	.
.	.	8d	ther	.	.	.	.	.
.	.	16r	.	.	.	.	.	.
.	.	8.r	.	.	.	.	.	.
.	.	16ccQ	_	.	.	.	.	.
.	.	[16dd	Yeah	.	.	.	.	.
=88	=88	=88	=88	=88	=88	=88	=88	=88
1Dmm	D:min13	2.dd_	_	1r	.	.	249.48	.
.	.	8dd]	_	.	.	.	.	.
.	.	8r	.	.	.	.	.	.
=89	=89	=89	=89	=89	=89	=89	=89	=89
1Dmm	D:min13	4r	.	1r	.	.	250.738	.
.	.	8e	Come	.	.	.	.	.
.	.	16f	to-	.	.	.	.	.
.	.	[16e	-ge	.	.	.	.	.
.	.	16e]	_	.	.	.	.	.
.	.	8d	ther	.	.	.	.	.
.	.	16r	.	.	.	.	.	.
.	.	4r	.	.	.	.	.	.
=90	=90	=90	=90	=90	=90	=90	=90	=90
1Dmm	D:min13	1r	.	1r	.	.	251.997	.
=91	=91	=91	=91	=91	=91	=91	=91	=91
1Dmm	D:min13	1r	.	1r	.	.	253.255	.
1r;	1r	r;	.	r;	.	.	254.514	.
1r;	1r	r;	.	r;	.	.	259.997	.
*-	*-	*-	*-	*-	*-	*-	*-	*-
!!!BillboardChartDate: 1969/10/25
!!!BillboardPeak: 1
!!!BillboardWeeksOnChart: 16
!!!COC: The Beatles
!!!ENC: Nathaniel Condit-Schultz
!!!EST: Awating manual error checking and editing.
!!!OTL: Come Together
!!!RDF**chordsym: original McGill chord annotation + (implied pitch class set, with bass pitch in first position)
!!!RDF**harmony: **recip + pitch class of root + harmonic quality
!!!RDF**leadinstrument: original McGill primary instrumentation annotation
!!!RDF**phrase: newline = linebreak in original McGill transcription
!!!RDF**timestamp: McGill audio timestamp in seconds
!!!RDT: 2017/01/12/
!!!SampleActualRank: 13
!!!SampleID#: 0473
!!!SampleTargetRank: 13
!!!MBID: 485bbe7f-d0f7-4ffe-8adb-0f1093dd2dbf